X: 7823
T: Comeragh's Rugged Hills
R: waltz
M: 3/4
K: Dmajor
F2|"D"A4A2|F4d2|"A"c4c2|E4F2|"A7"G4E2|"D"D4"A"C2|"D"D6|-D4F2|
|:A4A2|"Bm"B2c2d2|"A"e4e2|"D"f4e2|"G"d4B2|"A"A2B2c2|"D"d6-|d4F2:|
"D"A4A2|F4d2|"A"c4c2|E4F2|"A7"G4E2|"D"D4"A"C2|"D"D6|-D4||

